X:1306
T:Scale Navigation GDE Gracenote (Jig)
O:Kevin Fraser
Z:Kevin Fraser
Q:1/4=120
K:HP
M:6/8
L:1/8
R:March
V:gstem=up stem=down
%%MIDI gracedivider 4
%%MIDI gchord
%%MIDI beatstring
[|: 3{g}G{d}G{e}G 3{g}A{d}A{e}A | 3{g}B{d}B{e}B 3{g}c{d}c{e}c | 
w:  him dam um    hin dan un   |  ho to eo      hio dio eio    |
   3{g}c{d}c{e}c 3{g}B{d}B{e}B | 3{g}A{d}A{e}A 3{g}G{d}G{e}G :]
w:  hio dio eio      hio to eo    |  hin dan en      him dam em
[|: 3{g}B{d}B{e}B 3{g}c{d}c{e}c |  3{g}B{d}ce  3{g}A{d}B{e}c :]
w: ho to   eo   hio   dio  eio   |  hio  to  eo      hin to  eo  |

